X: 12928
T: Fiddler Play The Light
R: strathspey
M: 4/4
K: Bminor
|:B2 d>e f>e f>^g|a2 e>c A>B c<A|B2 d>e f>e f>^g|a2 e>c B2B2:|
d2 B2 d>d B2|d2 c>B A>B c<A|d2 B2 d>d B2|f2 e>c B2B2|
d2 B2 d>d B2|d>c B>A B>A F>A|B>c d>e f>e f>^g|a2e>c B2B2||

